X: 0
T: La Speranza Mi Va Consolando
Z: Italian Traditional
Z: Copyright © 2004 by Douglas D. Anderson
Z: Released To The Public Domain
L: 1/4
M: 3/4
Q: 1/4=120
V: P1 name="Staff"
%%MIDI program 1 19
V: P2 name="Staff-1"
%%MIDI program 2 60
V: P3 name="Staff-2"
%%MIDI program 3 57
V: P4 name="Staff-3"
%%MIDI program 4 58
K: F
[V: P1]  A B | c3/ A/ A | B3/ A/ G | A2 G | A2 B | A3/ G/ A | A3/ G/ A | F3 |z E F | G3/ F/ E | D3/ E/ F | E2 D | E2 F | E3/ D/ E | E3/ D/ D | (C2 D | E3/ D/ C | G3) | A2 B | A3/ G/ A | A3/ G/ G | F3|]
w: Make thee rea- dy, as best thou art a- ble, Lit- tle Beth- le hem, Gar- nish the bed, Tho' it be but a crib in a sta- ble, Where the In- fant may pil- low his head,_____ Where the In- fant may pil- low his head.
[V: P2]  F F | F3/ C/ D | D3/ D/ E | F2 E |z F F | F3/ E/ F | F3/ D/ E | F3 |z C C | D3/ D/ C | C3/ C/ =B, | C2 =B, |z C C | C3/ ^B,/ C | C3/ A,/ =B, | (C3 | C3 | C3/ D/ E) |z F F | F3/ E/ F | D3/ D/ E | F3|]
[V: P3]  C B, | F,3/ F,/ F, | F,3/ F,/ C | C2 C |z C D | C3/ C/ C | D3/ D/ C | A,3 |z G, A, | G,3/ G,/ G, | A,3/ A,/ G, | G,2 G, |z G, A, | G,3/ G,/ G, | A,3/ A,/ G, | (G,3 | G, E, F, | G, C2) | C2 D | C3/ C/ C | B,3/ B,/ B, | A,3|]
[V: P4]  F, D, | A,,3/ A,,/ D, | B,,3/ B,,/ C, | F,2 C, |z F, B,, | C,3/ C,/ F, | B,,3/ B,,/ C, | F,3 |z C, A,, | =B,,3/ B,,/ C, | F,3/ F,/ G, | C,2 G,, |z C, F, | G,3/ G,/ G, | A,3/ A,/ G, | (C,3 | C,2 D, | E,3/ D,/ C,) | F,2 B,, | C,3/ C,/ F, | B,,3/ B,,/ C, | F,3|]

